Numix-GalliumOS/32/mimetypes/text-x-copying.svg

<?xml version="1.0" encoding="UTF-8" standalone="no"?>
<svg
   xmlns:dc="http://purl.org/dc/elements/1.1/"
   xmlns:cc="http://creativecommons.org/ns#"
   xmlns:rdf="http://www.w3.org/1999/02/22-rdf-syntax-ns#"
   xmlns:svg="http://www.w3.org/2000/svg"
   xmlns="http://www.w3.org/2000/svg"
   xmlns:sodipodi="http://sodipodi.sourceforge.net/DTD/sodipodi-0.dtd"
   xmlns:inkscape="http://www.inkscape.org/namespaces/inkscape"
   width="32"
   height="32"
   viewBox="0 0 32 32"
   id="svg2"
   version="1.1"
   inkscape:version="0.48.5 r10040"
   sodipodi:docname="text-x-copying.svg">
  <metadata
     id="metadata20">
    <rdf:RDF>
      <cc:Work
         rdf:about="">
        <dc:format>image/svg+xml</dc:format>
        <dc:type
           rdf:resource="http://purl.org/dc/dcmitype/StillImage" />
      </cc:Work>
    </rdf:RDF>
  </metadata>
  <defs
     id="defs18" />
  <sodipodi:namedview
     pagecolor="#ffffff"
     bordercolor="#666666"
     borderopacity="1"
     objecttolerance="10"
     gridtolerance="10"
     guidetolerance="10"
     inkscape:pageopacity="0"
     inkscape:pageshadow="2"
     inkscape:window-width="1280"
     inkscape:window-height="970"
     id="namedview16"
     showgrid="true"
     inkscape:zoom="7.375"
     inkscape:cx="20.747866"
     inkscape:cy="1.8482352"
     inkscape:window-x="0"
     inkscape:window-y="0"
     inkscape:window-maximized="1"
     inkscape:current-layer="svg2">
    <inkscape:grid
       type="xygrid"
       id="grid3008" />
  </sodipodi:namedview>
  <path
     style="fill:#dcdcdc;fill-opacity:1"
     d="M 5.335888,2.97e-4 C 4.648414,3.12e-4 4,0.6767879 4,1.3940312 L 4,30.606268 C 4,31.282757 4.687474,32 5.335888,32 l 21.327332,0 c 0.648414,0 1.335888,-0.717243 1.335888,-1.393732 L 28,8.9999997 l -9,-9 z"
     id="path4-1"
     inkscape:connector-curvature="0"
     sodipodi:nodetypes="ssssssccs" />
  <path
     style="fill:#000000;fill-opacity:0.19599998"
     d="M 21,8.9999997 28,16 28,8.9999997 z"
     id="path6-4"
     inkscape:connector-curvature="0"
     sodipodi:nodetypes="cccc" />
  <path
     style="fill:#ffffff;fill-opacity:0.39200003"
     d="m 19.000306,2.97e-4 8.991594,8.9997027 -7.613262,0 c -0.672951,0 -1.378332,-0.7134896 -1.378332,-1.3864402 z"
     id="path8-6"
     inkscape:connector-curvature="0"
     sodipodi:nodetypes="ccssc" />
  <g
     style="fill:#888888"
     id="g10"
     transform="matrix(1.0497949,0,0,1.0501026,-0.79671876,0.79753835)">
    <path
       d="m 16,10.667969 c -3.683594,0 -6.667969,2.984375 -6.667969,6.664062 C 9.332031,21.015625 12.316406,24 16,24 c 3.683594,0 6.667969,-2.984375 6.667969,-6.667969 0,-3.679687 -2.984375,-6.664062 -6.667969,-6.664062 z M 16,12 c 2.945312,0 5.332031,2.386719 5.332031,5.332031 0,2.945313 -2.386719,5.335938 -5.332031,5.335938 -2.945312,0 -5.332031,-2.390625 -5.332031,-5.335938 C 10.667969,14.386719 13.054688,12 16,12 z"
       id="path12"
       inkscape:connector-curvature="0" />
    <path
       d="m 16.105469,14.707031 c -0.699219,0 -1.238281,0.234375 -1.621094,0.703125 -0.382813,0.464844 -0.574219,1.113282 -0.574219,1.945313 0,1.738281 0.730469,2.605469 2.195313,2.605469 0.613281,0 1.359375,-0.136719 2.230469,-0.410157 l 0,1.382813 c -0.714844,0.265625 -1.519532,0.398437 -2.402344,0.398437 -1.273438,0 -2.246094,-0.339843 -2.921875,-1.027343 C 12.335938,19.617188 12,18.632812 12,17.347656 c 0,-0.808594 0.164062,-1.519531 0.496094,-2.125 0.332031,-0.609375 0.804687,-1.078125 1.425781,-1.398437 0.621094,-0.328125 1.351563,-0.492188 2.183594,-0.492188 0.851562,0 1.703125,0.183594 2.5625,0.550781 l -0.601563,1.339844 C 17.742188,15.085938 17.410156,14.964844 17.082031,14.859375 16.75,14.757812 16.425781,14.707031 16.105469,14.707031"
       id="path14"
       inkscape:connector-curvature="0" />
  </g>
</svg>

<svg xmlns="http://www.w3.org/2000/svg" viewBox="0 0 32 32">
 <path d="m 5.336 0 c -0.687 0 -1.336 0.676 -1.336 1.394 l 0 29.21 c 0 0.676 0.687 1.394 1.336 1.394 l 21.327 0 c 0.648 0 1.336 -0.717 1.336 -1.394 l 0.001 -21.606 l -9 -9 z" style="fill:#dcdcdc;fill-opacity:1"/>
 <path d="m 21 9 7 7 0 -7 z" style="fill:#000;fill-opacity:0.196"/>
 <path d="m 19 0 8.992 9 -7.613 0 c -0.673 0 -1.378 -0.713 -1.378 -1.386 z" style="fill:#fff;fill-opacity:0.392"/>
 <g transform="matrix(1.0497949,0,0,1.0501026,-0.79671876,0.79753835)" style="fill:#888">
  <path d="m 16 10.668 c -3.684 0 -6.668 2.984 -6.668 6.664 c 0 3.684 2.984 6.668 6.668 6.668 c 3.684 0 6.668 -2.984 6.668 -6.668 0 -3.68 -2.984 -6.664 -6.668 -6.664 z m 0 1.332 c 2.945 0 5.332 2.387 5.332 5.332 0 2.945 -2.387 5.336 -5.332 5.336 -2.945 0 -5.332 -2.391 -5.332 -5.336 c 0 -2.945 2.387 -5.332 5.332 -5.332 z"/>
  <path d="m 16.11 14.707 c -0.699 0 -1.238 0.234 -1.621 0.703 -0.383 0.465 -0.574 1.113 -0.574 1.945 0 1.738 0.73 2.605 2.195 2.605 0.613 0 1.359 -0.137 2.23 -0.41 l 0 1.383 c -0.715 0.266 -1.52 0.398 -2.402 0.398 -1.273 0 -2.246 -0.34 -2.922 -1.027 c -0.676 -0.688 -1.012 -1.672 -1.012 -2.957 c 0 -0.809 0.164 -1.52 0.496 -2.125 0.332 -0.609 0.805 -1.078 1.426 -1.398 0.621 -0.328 1.352 -0.492 2.184 -0.492 0.852 0 1.703 0.184 2.563 0.551 l -0.602 1.34 c -0.324 -0.137 -0.656 -0.258 -0.984 -0.363 -0.332 -0.102 -0.656 -0.152 -0.977 -0.152"/>
 </g>
</svg>
